X: 329
T:The Hawk
M:4/4
L:1/8
C:James Hill
R:Hornpipe
Z:Andrew Pickering
K:D
(3ABc|d2 fd Adfe|dfeg fagf|e2 ge Begf|edcB ABcA|
d2 fd Adfe|dfeg fagf|edef gABc|dAfe d2:|
AA|Aafd Agec|Afdc dcBA|BAcB dced|fegf e2 ef|
gafg efde|caBg AfGe|cd ef gABc|dAfe d2:|

